images/info.svg

<svg xmlns="http://www.w3.org/2000/svg" width="26" height="26" fill="none" viewBox="0 0 26 26">
<circle cx="13" cy="13" r="13" fill="#83B3D3"/>
<path fill="#fff" fill-rule="evenodd" d="M12 7h2v2h-2V7Zm2 12h-2v-9h2v9Z" clip-rule="evenodd"/>
</svg>

<svg width="26" height="26" viewBox="0 0 26 26" fill="none" xmlns="http://www.w3.org/2000/svg">
<circle cx="13" cy="13" r="13" fill="#83B3D3"/>
<path fill-rule="evenodd" clip-rule="evenodd" d="M12 7H14V9H12V7ZM14 19H12V10H14V19Z" fill="white"/>
</svg>
